X:385
T: Xingfugeer changbuwan
N: C1887
O: China,Guangdong Wenchang
S: II, 356]
R: Shange]
M: 3/4
L: 1/16
K: G
B4A6B2 | d4A8 | d4e4d4- | d8B2z2 |
d4B4d4 | G4A8 | B4d4A4- | A4z8 |
e4d6e2 | B4d6e2 | d4B4e4- | e8d4 |
d4B4d4 | G4A8 | B2A2G4A4- | A8z4 |
d4e8 | B4d8 | d4e4d4- | d8
c4 | B6d2G4 | B8-B2c2 | B4A2B2A4- | A8z4 |
d4e8 | B4d8 | d4B4e4- | e8d4 |
B4d8 | G4B6c2 | B2A2G4A4- | A12

@@@ Tune index: 6940
